icons/svg/poi/lock_gate.svg

<?xml version="1.0" encoding="UTF-8" standalone="no"?>
<!-- Created with Inkscape (http://www.inkscape.org/) -->

<svg
   xmlns:dc="http://purl.org/dc/elements/1.1/"
   xmlns:cc="http://creativecommons.org/ns#"
   xmlns:rdf="http://www.w3.org/1999/02/22-rdf-syntax-ns#"
   xmlns:svg="http://www.w3.org/2000/svg"
   xmlns="http://www.w3.org/2000/svg"
   xmlns:sodipodi="http://sodipodi.sourceforge.net/DTD/sodipodi-0.dtd"
   xmlns:inkscape="http://www.inkscape.org/namespaces/inkscape"
   version="1.0"
   width="580"
   height="580"
   id="svg2"
   sodipodi:version="0.32"
   inkscape:version="0.91 r"
   sodipodi:docname="lock_gate.svg"
   inkscape:output_extension="org.inkscape.output.svg.inkscape">
  <metadata
     id="metadata10">
    <rdf:RDF>
      <cc:Work
         rdf:about="">
        <dc:format>image/svg+xml</dc:format>
        <dc:type
           rdf:resource="http://purl.org/dc/dcmitype/StillImage" />
        <cc:license
           rdf:resource="http://web.resource.org/cc/PublicDomain" />
        <dc:language>en</dc:language>
        <dc:title></dc:title>
      </cc:Work>
    </rdf:RDF>
  </metadata>
  <sodipodi:namedview
     inkscape:window-height="1051"
     inkscape:window-width="1920"
     inkscape:pageshadow="2"
     inkscape:pageopacity="0.0"
     guidetolerance="10.0"
     gridtolerance="10.0"
     objecttolerance="10.0"
     borderopacity="1.0"
     bordercolor="#666666"
     pagecolor="#ffffff"
     id="base"
     showgrid="false"
     inkscape:zoom="1"
     inkscape:cx="396.90932"
     inkscape:cy="307.77765"
     inkscape:window-x="3600"
     inkscape:window-y="0"
     inkscape:current-layer="svg2"
     inkscape:window-maximized="1"
     inkscape:snap-global="false">
    <inkscape:grid
       type="xygrid"
       id="grid3034" />
  </sodipodi:namedview>
  <defs
     id="defs4">
    <inkscape:perspective
       sodipodi:type="inkscape:persp3d"
       inkscape:vp_x="0 : 290 : 1"
       inkscape:vp_y="0 : 1000 : 0"
       inkscape:vp_z="580 : 290 : 1"
       inkscape:persp3d-origin="290 : 193.33333 : 1"
       id="perspective12" />
    <style
       type="text/css"
       id="style6">
   
    .fil0 {fill:#EF7900}
   
  </style>
    <inkscape:perspective
       id="perspective6807"
       inkscape:persp3d-origin="29.116032 : 19.410688 : 1"
       inkscape:vp_z="58.232063 : 29.116032 : 1"
       inkscape:vp_y="0 : 1000 : 0"
       inkscape:vp_x="0 : 29.116032 : 1"
       sodipodi:type="inkscape:persp3d" />
    <inkscape:perspective
       id="perspective6954"
       inkscape:persp3d-origin="290 : 193.33333 : 1"
       inkscape:vp_z="580 : 290 : 1"
       inkscape:vp_y="0 : 1000 : 0"
       inkscape:vp_x="0 : 290 : 1"
       sodipodi:type="inkscape:persp3d" />
    <inkscape:perspective
       id="perspective2541"
       inkscape:persp3d-origin="240 : 160 : 1"
       inkscape:vp_z="480 : 240 : 1"
       inkscape:vp_y="0 : 1000 : 0"
       inkscape:vp_x="0 : 240 : 1"
       sodipodi:type="inkscape:persp3d" />
    <inkscape:perspective
       id="perspective2750"
       inkscape:persp3d-origin="215 : 143.33333 : 1"
       inkscape:vp_z="430 : 215 : 1"
       inkscape:vp_y="0 : 1000 : 0"
       inkscape:vp_x="0 : 215 : 1"
       sodipodi:type="inkscape:persp3d" />
    <inkscape:perspective
       id="perspective3730"
       inkscape:persp3d-origin="88.929146 : 101.19778 : 1"
       inkscape:vp_z="177.85829 : 151.79668 : 1"
       inkscape:vp_y="0 : 1000 : 0"
       inkscape:vp_x="0 : 151.79668 : 1"
       sodipodi:type="inkscape:persp3d" />
  </defs>
  <a
     id="a3072">
    <g
       id="g1327">
      <path
         id="path1329"
         style="fill:#111111;stroke:#eeeeee;stroke-width:3.40799999"
         d="M 66.275,1.768 C 24.94,1.768 1.704,23.139 1.704,66.804 L 1.704,516.927 C 1.704,557.771 22.598,579.156 63.896,579.156 L 515.92,579.156 C 557.227,579.156 578.149,558.84 578.149,516.927 L 578.149,66.804 C 578.149,24.203 557.227,1.768 514.627,1.768 C 514.624,1.768 66.133,1.625 66.275,1.768 z" />
    </g>
  </a>
  <g
     id="g1327-3"
     transform="matrix(1.4887701,0,0,1.4888106,-703.87313,-249.96612)" />
  <path
     style="opacity:0.46400003;fill:#fefefe;fill-opacity:0;stroke:none;stroke-width:65.80000305;stroke-linecap:butt;stroke-linejoin:round;stroke-miterlimit:4;stroke-dasharray:none;stroke-opacity:0.68181817"
     d="m 68.849736,98.584956 62.484234,-60.510022 147.72293,-6.405652 67.31943,76.448018 33.83604,74.38689 14.4476,169.69977 32.24731,7.46021 76.48461,39.32203 41.56883,37.28607 -25.17259,76.21202 -66.80317,24.63803 -217.85992,11.2084 -173.226524,-62.037 -26.85924,-230.0863 z"
     id="path3759"
     inkscape:connector-curvature="0"
     sodipodi:nodetypes="ccccccccccccccc" />
  <path
     style="fill:#ffffff;fill-opacity:1;stroke-width:45.53900146;stroke-miterlimit:4;stroke-dasharray:none"
     inkscape:connector-curvature="0"
     d="m 410.27511,311.77405 c -3.33219,1.47555 -6.66441,2.95109 -11.10734,2.95109 -8.88586,0 -23.32538,-2.95109 -33.32196,-13.27991 -9.9966,10.32882 -24.43613,13.27991 -33.32199,13.27991 -8.88586,0 -23.32538,-2.95109 -33.32199,-13.27991 -9.99659,10.32882 -24.43611,13.27991 -33.32195,13.27991 -8.88588,0 -23.32542,-2.95109 -33.32199,-13.27991 -9.9966,10.32882 -24.43611,13.27991 -33.32199,13.27991 -8.88585,0 -23.32536,-2.95109 -33.32197,-13.27991 -9.9966,10.32882 -24.43611,13.27991 -33.32197,13.27991 -4.44293,0 -7.77515,0 -11.10732,-1.47554 l 0,26.55985 c 3.33217,0 6.66439,1.47554 11.10732,1.47554 18.88245,0 26.65758,-5.90219 33.32197,-13.27992 9.99661,10.32882 24.43612,13.27992 33.32197,13.27992 8.88588,0 23.32539,-2.9511 33.32199,-13.27992 9.99657,10.32882 24.43611,13.27992 33.32199,13.27992 8.88584,0 23.32536,-2.9511 33.32195,-13.27992 9.99661,10.32882 24.43613,13.27992 33.32199,13.27992 8.88586,0 23.32539,-2.9511 33.32199,-13.27992 9.99658,10.32882 24.4361,13.27992 33.32196,13.27992 4.44293,0 7.77515,-1.47554 11.10734,-1.47554 l 0,-28.0354 z"
     id="path17" />
  <path
     inkscape:connector-curvature="0"
     style="color:#000000;font-style:normal;font-variant:normal;font-weight:normal;font-stretch:normal;font-size:medium;line-height:normal;font-family:Sans;-inkscape-font-specification:Sans;text-indent:0;text-align:start;text-decoration:none;text-decoration-line:none;letter-spacing:normal;word-spacing:normal;text-transform:none;direction:ltr;block-progression:tb;writing-mode:lr-tb;baseline-shift:baseline;text-anchor:start;display:inline;overflow:visible;visibility:visible;fill:#ffffff;fill-opacity:1;stroke:none;stroke-width:46.00647736;marker:none;enable-background:accumulate"
     d="m 388.62173,119.83817 0,413.48717 55.70573,0.18958 0,-413.67675 z"
     id="path3000"
     sodipodi:nodetypes="ccccc" />
  <path
     style="fill:#ffffff;fill-opacity:1;stroke-width:45.53900146;stroke-miterlimit:4;stroke-dasharray:none"
     d="m 433.73126,385.77746 c -8.02756,10.65893 -19.61979,13.67125 -26.7554,13.67125 -3.5678,0 -6.25523,-0.003 -8.93107,-1.52609 l 0,27.40608 c 2.67584,0 5.36327,1.5261 8.93107,1.5261 15.16317,0 21.40369,-6.05774 26.7554,-13.67125 8.02756,10.65892 19.61979,13.67125 26.75541,13.67125 7.13561,0 18.72784,-3.01233 26.7554,-13.67125 8.02756,10.65892 19.61979,13.67125 26.75539,13.67125 7.13562,0 18.72785,-3.01233 26.75541,-13.67125 1.32316,1.7569 10.12136,8.22796 11.60244,9.59161 0.2776,-10.18374 0.20474,-15.8933 0.62103,-26.88733 -4.30537,-2.12986 -8.62822,-5.33665 -12.22347,-10.11037 -8.02756,10.65893 -19.61979,13.67125 -26.75541,13.67125 -7.1356,0 -18.72783,-3.01232 -26.75539,-13.67125 -8.02756,10.65893 -19.61979,13.67125 -26.7554,13.67125 -7.13562,0 -18.72785,-3.01232 -26.75541,-13.67125 z"
     id="path17-7"
     inkscape:connector-curvature="0"
     sodipodi:nodetypes="csccscscsccccscsc" />
  <path
     style="fill:#ffffff;fill-opacity:1;stroke-width:45.53900146;stroke-miterlimit:4;stroke-dasharray:none"
     d="m 100.17807,301.39187 c -9.881075,10.32882 -24.178575,13.30947 -32.961746,13.30947 -4.052677,0 -10.616398,-0.99653 -17.483728,-3.08089 0.293918,9.63742 0.379794,15.82579 0.477444,25.10572 5.946636,1.71237 13.415299,4.5325 17.006284,4.5325 8.783171,0 23.080671,-2.98066 32.961746,-13.30948 9.88107,10.32882 24.14073,13.30948 32.9239,13.30948 8.78318,0 23.04285,-2.98066 32.92391,-13.30948 9.88108,10.32882 24.17885,13.42595 32.96174,13.30948 16.14882,-0.21416 32.92391,-13.30948 32.92391,-13.30948 l 0,-26.55732 c 0,0 -17.82732,13.52363 -32.92391,13.30947 -8.78284,-0.12461 -23.08066,-2.98065 -32.96174,-13.30947 -9.88106,10.32882 -24.14073,13.30947 -32.92391,13.30947 -8.78317,0 -23.04283,-2.98065 -32.9239,-13.30947 z"
     id="path17-7-3"
     inkscape:connector-curvature="0"
     sodipodi:nodetypes="csccscscsccscsc" />
  <path
     style="color:#000000;display:inline;overflow:visible;visibility:visible;fill:#ffffff;fill-opacity:1;fill-rule:nonzero;stroke:none;stroke-width:10;marker:none;enable-background:accumulate"
     d="m 237.46613,67.886723 c -0.30058,-0.0014 -0.62025,0.02201 -0.93858,0.04366 l -185.489224,0 0,88.095367 234.186154,0 -38.89643,-81.765421 c -1.79908,-3.796811 -4.35328,-6.356083 -8.86192,-6.373601 z M 59.681972,94.69077 l 40.926368,0 0,46.60149 -40.926368,0 0,-46.60149 z m 51.687278,0 40.92637,0 0,46.60149 -40.92637,0 0,-46.60149 z m 64.25986,0 54.89591,0 20.9543,46.60149 -54.89591,0 -20.9543,-46.60149 z"
     id="rect3776"
     inkscape:connector-curvature="0" />
  <path
     style="color:#000000;display:inline;overflow:visible;visibility:visible;fill:#ffffff;fill-opacity:1;fill-rule:nonzero;stroke:none;stroke-width:10;marker:none;enable-background:accumulate"
     d="m 52.32614,173.59682 0,98.59435 236.84909,0 c 10.562,-0.26793 16.15768,-9.70546 17.13452,-11.41573 l 56.81671,-87.17862 -310.80032,0 z m 208.56079,6.59187 c 19.20983,0 34.98931,15.80131 34.98931,35.01114 0,19.20984 -15.77948,34.9675 -34.98931,34.9675 -19.20983,0 -34.98932,-15.75766 -34.98932,-34.9675 0,-19.20983 15.77949,-35.01114 34.98932,-35.01114 z m 0,19.97207 c -8.41377,0 -15.01726,6.62532 -15.01726,15.03907 0,8.41377 6.60349,14.99542 15.01726,14.99542 8.41375,0 15.01725,-6.58165 15.01725,-14.99542 0,-8.41375 -6.6035,-15.03907 -15.01725,-15.03907 z"
     id="rect3810"
     inkscape:connector-curvature="0" />
  <rect
     style="color:#000000;clip-rule:nonzero;display:inline;overflow:visible;visibility:visible;opacity:0.379;isolation:auto;mix-blend-mode:normal;color-interpolation:sRGB;color-interpolation-filters:linearRGB;solid-color:#000000;solid-opacity:1;fill:#ffffff;fill-opacity:1;fill-rule:nonzero;stroke:none;stroke-width:40;stroke-linecap:butt;stroke-linejoin:miter;stroke-miterlimit:4;stroke-dasharray:none;stroke-dashoffset:0;stroke-opacity:1;marker:none;color-rendering:auto;image-rendering:auto;shape-rendering:auto;text-rendering:auto;enable-background:accumulate"
     id="rect4172"
     width="369.5"
     height="212.5"
     x="49.5"
     y="321.01492" />
  <rect
     style="color:#000000;clip-rule:nonzero;display:inline;overflow:visible;visibility:visible;opacity:0.379;isolation:auto;mix-blend-mode:normal;color-interpolation:sRGB;color-interpolation-filters:linearRGB;solid-color:#000000;solid-opacity:1;fill:#ffffff;fill-opacity:1;fill-rule:nonzero;stroke:none;stroke-width:40;stroke-linecap:butt;stroke-linejoin:miter;stroke-miterlimit:4;stroke-dasharray:none;stroke-dashoffset:0;stroke-opacity:1;marker:none;color-rendering:auto;image-rendering:auto;shape-rendering:auto;text-rendering:auto;enable-background:accumulate"
     id="rect4172-0"
     width="114.23445"
     height="121.28323"
     x="437.50397"
     y="412.23169" />
</svg>

<?xml version="1.0" encoding="UTF-8" standalone="no"?>
<!-- Created with Inkscape (http://www.inkscape.org/) -->

<svg
   xmlns:dc="http://purl.org/dc/elements/1.1/"
   xmlns:cc="http://creativecommons.org/ns#"
   xmlns:rdf="http://www.w3.org/1999/02/22-rdf-syntax-ns#"
   xmlns:svg="http://www.w3.org/2000/svg"
   xmlns="http://www.w3.org/2000/svg"
   xmlns:sodipodi="http://sodipodi.sourceforge.net/DTD/sodipodi-0.dtd"
   xmlns:inkscape="http://www.inkscape.org/namespaces/inkscape"
   version="1.0"
   width="580"
   height="580"
   id="svg2"
   sodipodi:version="0.32"
   inkscape:version="0.91 r"
   sodipodi:docname="lock_gate.svg"
   inkscape:output_extension="org.inkscape.output.svg.inkscape">
  <metadata
     id="metadata10">
    <rdf:RDF>
      <cc:Work
         rdf:about="">
        <dc:format>image/svg+xml</dc:format>
        <dc:type
           rdf:resource="http://purl.org/dc/dcmitype/StillImage" />
        <cc:license
           rdf:resource="http://web.resource.org/cc/PublicDomain" />
        <dc:language>en</dc:language>
        <dc:title />
      </cc:Work>
    </rdf:RDF>
  </metadata>
  <sodipodi:namedview
     inkscape:window-height="1004"
     inkscape:window-width="1920"
     inkscape:pageshadow="2"
     inkscape:pageopacity="0.0"
     guidetolerance="10.0"
     gridtolerance="10.0"
     objecttolerance="10.0"
     borderopacity="1.0"
     bordercolor="#666666"
     pagecolor="#ffffff"
     id="base"
     showgrid="false"
     inkscape:zoom="0.5"
     inkscape:cx="636.55413"
     inkscape:cy="362.22578"
     inkscape:window-x="1680"
     inkscape:window-y="0"
     inkscape:current-layer="svg2"
     inkscape:window-maximized="1"
     inkscape:snap-global="false">
    <inkscape:grid
       type="xygrid"
       id="grid3034" />
  </sodipodi:namedview>
  <defs
     id="defs4">
    <inkscape:perspective
       sodipodi:type="inkscape:persp3d"
       inkscape:vp_x="0 : 290 : 1"
       inkscape:vp_y="0 : 1000 : 0"
       inkscape:vp_z="580 : 290 : 1"
       inkscape:persp3d-origin="290 : 193.33333 : 1"
       id="perspective12" />
    <style
       type="text/css"
       id="style6">
   
    .fil0 {fill:#EF7900}
   
  </style>
    <inkscape:perspective
       id="perspective6807"
       inkscape:persp3d-origin="29.116032 : 19.410688 : 1"
       inkscape:vp_z="58.232063 : 29.116032 : 1"
       inkscape:vp_y="0 : 1000 : 0"
       inkscape:vp_x="0 : 29.116032 : 1"
       sodipodi:type="inkscape:persp3d" />
    <inkscape:perspective
       id="perspective6954"
       inkscape:persp3d-origin="290 : 193.33333 : 1"
       inkscape:vp_z="580 : 290 : 1"
       inkscape:vp_y="0 : 1000 : 0"
       inkscape:vp_x="0 : 290 : 1"
       sodipodi:type="inkscape:persp3d" />
    <inkscape:perspective
       id="perspective2541"
       inkscape:persp3d-origin="240 : 160 : 1"
       inkscape:vp_z="480 : 240 : 1"
       inkscape:vp_y="0 : 1000 : 0"
       inkscape:vp_x="0 : 240 : 1"
       sodipodi:type="inkscape:persp3d" />
    <inkscape:perspective
       id="perspective2750"
       inkscape:persp3d-origin="215 : 143.33333 : 1"
       inkscape:vp_z="430 : 215 : 1"
       inkscape:vp_y="0 : 1000 : 0"
       inkscape:vp_x="0 : 215 : 1"
       sodipodi:type="inkscape:persp3d" />
    <inkscape:perspective
       id="perspective3730"
       inkscape:persp3d-origin="88.929146 : 101.19778 : 1"
       inkscape:vp_z="177.85829 : 151.79668 : 1"
       inkscape:vp_y="0 : 1000 : 0"
       inkscape:vp_x="0 : 151.79668 : 1"
       sodipodi:type="inkscape:persp3d" />
  </defs>
  <a
     id="a3072">
    <g
       id="g1327">
      <path
         id="path1329"
         style="fill:#111111;stroke:#eeeeee;stroke-width:3.40799999"
         d="M 66.275,1.768 C 24.94,1.768 1.704,23.139 1.704,66.804 L 1.704,516.927 C 1.704,557.771 22.598,579.156 63.896,579.156 L 515.92,579.156 C 557.227,579.156 578.149,558.84 578.149,516.927 L 578.149,66.804 C 578.149,24.203 557.227,1.768 514.627,1.768 C 514.624,1.768 66.133,1.625 66.275,1.768 z" />
    </g>
  </a>
  <g
     id="g1327-3"
     transform="matrix(1.4887701,0,0,1.4888106,-703.87313,-249.96612)" />
  <path
     style="opacity:0.46400003;fill:#fefefe;fill-opacity:0;stroke:none;stroke-width:65.80000305;stroke-linecap:butt;stroke-linejoin:round;stroke-miterlimit:4;stroke-dasharray:none;stroke-opacity:0.68181817"
     d="m 68.849736,98.584956 62.484234,-60.510022 147.72293,-6.405652 67.31943,76.448018 33.83604,74.38689 14.4476,169.69977 32.24731,7.46021 76.48461,39.32203 41.56883,37.28607 -25.17259,76.21202 -66.80317,24.63803 -217.85992,11.2084 -173.226524,-62.037 -26.85924,-230.0863 z"
     id="path3759"
     inkscape:connector-curvature="0"
     sodipodi:nodetypes="ccccccccccccccc" />
  <path
     style="fill:#ffffff;fill-opacity:1;stroke-width:45.53900146;stroke-miterlimit:4;stroke-dasharray:none"
     d="M 165.91406 301.44531 C 155.91746 311.77413 141.47766 314.72461 132.5918 314.72461 C 128.14887 314.72461 124.81655 314.72554 121.48438 313.25 L 121.48438 339.80859 C 124.81655 339.80859 128.14887 341.28516 132.5918 341.28516 C 151.47425 341.28516 159.24967 335.38359 165.91406 328.00586 C 175.91067 338.33468 190.35048 341.28516 199.23633 341.28516 C 208.12221 341.28516 222.56199 338.33468 232.55859 328.00586 C 242.55516 338.33468 256.99303 341.28516 265.87891 341.28516 C 274.76475 341.28516 289.20458 338.33468 299.20117 328.00586 C 309.19778 338.33468 323.63758 341.28516 332.52344 341.28516 C 339.5811 341.28516 350.13752 339.40815 359.19336 333.4668 L 359.19336 306.90625 C 350.13752 312.8476 339.5811 314.72461 332.52344 314.72461 C 323.63758 314.72461 309.19778 311.77413 299.20117 301.44531 C 289.20458 311.77413 274.76475 314.72461 265.87891 314.72461 C 256.99303 314.72461 242.55516 311.77413 232.55859 301.44531 C 222.56199 311.77413 208.12221 314.72461 199.23633 314.72461 C 190.35048 314.72461 175.91067 311.77413 165.91406 301.44531 z "
     id="path17" />
  <path
     inkscape:connector-curvature="0"
     style="color:#000000;font-style:normal;font-variant:normal;font-weight:normal;font-stretch:normal;font-size:medium;line-height:normal;font-family:Sans;-inkscape-font-specification:Sans;text-indent:0;text-align:start;text-decoration:none;text-decoration-line:none;letter-spacing:normal;word-spacing:normal;text-transform:none;direction:ltr;block-progression:tb;writing-mode:lr-tb;baseline-shift:baseline;text-anchor:start;display:inline;overflow:visible;visibility:visible;fill:#ffffff;fill-opacity:1;stroke:none;stroke-width:46.00647736;marker:none;enable-background:accumulate"
     d="m 388.62173,119.83817 0,413.48717 55.70573,0.18958 0,-413.67675 z"
     id="path3000"
     sodipodi:nodetypes="ccccc" />
  <path
     style="fill:#ffffff;fill-opacity:1;stroke-width:45.53900146;stroke-miterlimit:4;stroke-dasharray:none"
     d="M 487.24219 385.77734 C 483.29143 391.02313 478.47725 394.40988 473.75586 396.50391 L 473.75586 423.91016 C 478.47725 421.81613 483.29143 418.42937 487.24219 413.18359 C 495.26975 423.84251 506.86245 426.85547 513.99805 426.85547 C 521.13367 426.85547 532.72439 423.84251 540.75195 413.18359 C 542.07511 414.94049 550.87439 421.41174 552.35547 422.77539 C 552.63307 412.59165 552.56027 406.8827 552.97656 395.88867 C 548.67119 393.75881 544.3472 390.55106 540.75195 385.77734 C 532.72439 396.43627 521.13367 399.44922 513.99805 399.44922 C 506.86245 399.44922 495.26975 396.43627 487.24219 385.77734 z "
     id="path17-7" />
  <path
     style="fill:#ffffff;fill-opacity:1;stroke-width:45.53900146;stroke-miterlimit:4;stroke-dasharray:none"
     d="m 100.17807,301.39187 c -9.881075,10.32882 -24.178575,13.30947 -32.961746,13.30947 -4.052677,0 -10.616398,-0.99653 -17.483728,-3.08089 0.293918,9.63742 0.379794,15.82579 0.477444,25.10572 5.946636,1.71237 13.415299,4.5325 17.006284,4.5325 8.783171,0 23.080671,-2.98066 32.961746,-13.30948 9.88107,10.32882 24.14073,13.30948 32.9239,13.30948 8.78318,0 23.04285,-2.98066 32.92391,-13.30948 9.88108,10.32882 24.17885,13.42595 32.96174,13.30948 16.14882,-0.21416 32.92391,-13.30948 32.92391,-13.30948 l 0,-26.55732 c 0,0 -17.82732,13.52363 -32.92391,13.30947 -8.78284,-0.12461 -23.08066,-2.98065 -32.96174,-13.30947 -9.88106,10.32882 -24.14073,13.30947 -32.92391,13.30947 -8.78317,0 -23.04283,-2.98065 -32.9239,-13.30947 z"
     id="path17-7-3"
     inkscape:connector-curvature="0"
     sodipodi:nodetypes="csccscscsccscsc" />
  <path
     style="color:#000000;display:inline;overflow:visible;visibility:visible;fill:#ffffff;fill-opacity:1;fill-rule:nonzero;stroke:none;stroke-width:10;marker:none;enable-background:accumulate"
     d="m 237.46613,67.886723 c -0.30058,-0.0014 -0.62025,0.02201 -0.93858,0.04366 l -185.489224,0 0,88.095367 234.186154,0 -38.89643,-81.765421 c -1.79908,-3.796811 -4.35328,-6.356083 -8.86192,-6.373601 z M 59.681972,94.69077 l 40.926368,0 0,46.60149 -40.926368,0 0,-46.60149 z m 51.687278,0 40.92637,0 0,46.60149 -40.92637,0 0,-46.60149 z m 64.25986,0 54.89591,0 20.9543,46.60149 -54.89591,0 -20.9543,-46.60149 z"
     id="rect3776"
     inkscape:connector-curvature="0" />
  <path
     style="color:#000000;display:inline;overflow:visible;visibility:visible;fill:#ffffff;fill-opacity:1;fill-rule:nonzero;stroke:none;stroke-width:10;marker:none;enable-background:accumulate"
     d="m 52.32614,173.59682 0,98.59435 236.84909,0 c 10.562,-0.26793 16.15768,-9.70546 17.13452,-11.41573 l 56.81671,-87.17862 -310.80032,0 z m 208.56079,6.59187 c 19.20983,0 34.98931,15.80131 34.98931,35.01114 0,19.20984 -15.77948,34.9675 -34.98931,34.9675 -19.20983,0 -34.98932,-15.75766 -34.98932,-34.9675 0,-19.20983 15.77949,-35.01114 34.98932,-35.01114 z m 0,19.97207 c -8.41377,0 -15.01726,6.62532 -15.01726,15.03907 0,8.41377 6.60349,14.99542 15.01726,14.99542 8.41375,0 15.01725,-6.58165 15.01725,-14.99542 0,-8.41375 -6.6035,-15.03907 -15.01725,-15.03907 z"
     id="rect3810"
     inkscape:connector-curvature="0" />
  <path
     style="color:#000000;clip-rule:nonzero;display:inline;overflow:visible;visibility:visible;opacity:0.379;isolation:auto;mix-blend-mode:normal;color-interpolation:sRGB;color-interpolation-filters:linearRGB;solid-color:#000000;solid-opacity:1;fill:#ffffff;fill-opacity:1;fill-rule:nonzero;stroke:none;stroke-width:40;stroke-linecap:butt;stroke-linejoin:miter;stroke-miterlimit:4;stroke-dasharray:none;stroke-dashoffset:0;stroke-opacity:1;marker:none;color-rendering:auto;image-rendering:auto;shape-rendering:auto;text-rendering:auto;enable-background:accumulate"
     d="M 49.5 321.01562 L 49.5 533.51562 L 359.20312 533.51562 A 29.430822 29.430822 0 0 1 359.19336 533.32617 L 359.19336 321.01562 L 49.5 321.01562 z "
     id="rect4172" />
  <path
     style="color:#000000;clip-rule:nonzero;display:inline;overflow:visible;visibility:visible;opacity:0.379;isolation:auto;mix-blend-mode:normal;color-interpolation:sRGB;color-interpolation-filters:linearRGB;solid-color:#000000;solid-opacity:1;fill:#ffffff;fill-opacity:1;fill-rule:nonzero;stroke:none;stroke-width:40;stroke-linecap:butt;stroke-linejoin:miter;stroke-miterlimit:4;stroke-dasharray:none;stroke-dashoffset:0;stroke-opacity:1;marker:none;color-rendering:auto;image-rendering:auto;shape-rendering:auto;text-rendering:auto;enable-background:accumulate"
     d="M 473.75586 412.23242 L 473.75586 533.51562 L 551.73828 533.51562 L 551.73828 412.23242 L 473.75586 412.23242 z "
     id="rect4172-0" />
</svg>
